X: 14
M: 6/8
L: 1/8
K: D
|:\
a3 g3 | fdf ece | d2f ece | d2f ece |\
dcd ede | fef ^gfg | a2d cdB | A3- A3 :|
|:\

